X:1
T:Cup of Tea, The
R:reel
M:4/4
L:1/8
K:D
BAGF GEEF|GEBE GE~E2|BAGF GE~E2|DFAG FDDA|
BAGF GE~E2|GEBE GE~E2|BAGF GABc|1 dABG FDD=c:|2 dABG FDD2|]
d2 eg fdec|d2 eg fB B2|d2 eg fdec|dBAG FD D2|
d2 eg fdec|dfaf g2 fg|afge fdec|dBAG FD D2:|
FAdA BAdA|FAdA FE E2|FAdA BABc|dBAG FD D2|
FAdA BAdA|FAde fe e2|fdec dBAF|GBAG FD D2:|
